X: 43520
T: Ymgyrchdon Y Waunlwyd
R: polka
M: 2/4
K: Gmajor
g>d Bd|cA A/B/c|BG d>B|BA- Ae/f/|
gd- dd|c/B/A d>c|BG B/A/G/F/|G3:|
FA AF/A/|cB B2|GB BG/B/|dB- Bd|
ee/f/ g/a/g/e/|dB B/c/d/B/|cc/A/ FA|G3:|

